src/assets/icons/15-icon-mongodb.svg

<svg width="31" height="64" viewBox="0 0 31 64" fill="none" xmlns="http://www.w3.org/2000/svg">
<g clip-path="url(#clip0_408_868)">
<path d="M21.5647 7.13325C18.8668 3.94632 16.5436 0.709589 16.0689 0.0373468C16.019 -0.0124489 15.944 -0.0124489 15.894 0.0373468C15.4194 0.709589 13.0962 3.94632 10.3982 7.13325C-12.7592 36.5376 14.0455 56.3813 14.0455 56.3813L14.2703 56.5306C14.4701 59.5932 14.9697 64 14.9697 64H15.969H16.9682C16.9682 64 17.4679 59.618 17.6677 56.5306L17.8925 56.3565C17.9175 56.3565 44.7221 36.5376 21.5647 7.13325ZM15.969 55.933C15.969 55.933 14.7699 54.9123 14.4452 54.3893V54.3397L15.894 22.3209C15.894 22.2213 16.044 22.2213 16.044 22.3209L17.4928 54.3397V54.3893C17.1681 54.9123 15.969 55.933 15.969 55.933Z" fill="#00684A"/>
</g>
<defs>
<clipPath id="clip0_408_868">
<rect width="29.7674" height="64" fill="white" transform="translate(0.973389)"/>
</clipPath>
</defs>
</svg>

<svg xmlns="http://www.w3.org/2000/svg" width="31" height="64" fill="none"><g clip-path="url(#a)"><path fill="#00684A" d="M21.56 7.13c-2.7-3.18-5.02-6.42-5.5-7.1a.12.12 0 0 0-.17 0c-.47.68-2.8 3.92-5.5 7.1-23.15 29.4 3.66 49.25 3.66 49.25l.22.15c.2 3.06.7 7.47.7 7.47h2s.5-4.38.7-7.47l.22-.17c.03 0 26.83-19.82 3.67-49.23Zm-5.6 48.8s-1.19-1.02-1.51-1.54v-.05l1.44-32.02c0-.1.15-.1.15 0l1.45 32.02v.05c-.32.52-1.52 1.54-1.52 1.54Z"/></g><defs><clipPath id="a"><path fill="#fff" d="M.97 0h29.77v64H.97z"/></clipPath></defs></svg>
